X: 541
T: West Hornpipe
%R: hornpipe, reel
Z: 2018 John Chambers <jc:trillian.mit.edu>
B: John Treat - "Gamut for the Fifes", 1779, p.54 #1
F: https://archive.org/details/GamutFortheFifes
M: C|
L: 1/8
K: D
% - - - - - - - - - - - - - - - - - - - - - - - - -
|:\
d2FG (AF)(AF) | d2FG (AF)(AF) | BAGF E2ef | gfed c2(AB/c/) |\
d2FG (AF)(AF) | d2FG (AF)(AF) | BAGF E2eg | fedc d4 :|
|:\
f2(df) (df)(df) | e2ce cece | f2ef efef | edcB A2Bc |\
dBdB cAcA | dBdB cAcA | afge fdec | d2d2 d4 |]
% - - - - - - - - - - - - - - - - - - - - - - - - -

%%sep 1 1 500
%%sep 1 1 500

